X: 244
T: Jenny on the Railroad
B: canberra pickers and fiddlers
B: tunes
M:4/4
L:1/8
Q: 1/4=100
K:Amixolydian
V:1 
zA-AB||"A"cABA cABA|"A"cAEF "G"G2Ac|BGAc BGAG |"A"E+slide+""[A2A2][AB] [A3A3]B|
"A"cABA cABA|"A"cAEF "G"G2 ef|"G"gfed cBAG|"A"""E+slide+[A2A2][AB] [A3A3]B|
"A"cABA cABc|"A"BAEF "G"G2 G2|"G"gfed cBAG|"A"E+slide+[A2A2][AB] [A3A3]B|
"A"cABA cABA|"A"cAEF "G"G2 e2|"G"gfed cBAG|"A"E+slide+[A2A2][AB] [A4A4]||
"A"ABcd efgf|"G"ecAA G2[G2B2]|gfee dBAG |"A"EA2[AB] [A3A3][AA]-|
"A"[AA]Bcd efgf|"G"edBA G2[G2B2]| ""gfee    edBG|"A"EA2[AB] [A3A3]a-||
"A"abaf afaf|"A"afdB "G"g2gg |"G"bgag bgag| "A"eaab abag|
"A"eaab abag| "A"baef "G"g2 gg|"G"gfed cBAG|"A"E+slide+[A2A2][AB] [A3A3]B|
"A"ABcd efgf|"A"ecAA "G"G2[GB]G|"G"gfef edBA| "A"E""A2[AB][A2A2]||
% abcbook-tune_id 63ae8f1cccfb1220976cdfd9
% abcbook-tune_composer_id 
% abcbook-link-0 https://www.youtube.com/watch?v=5Y6mYUIZmRE
% abcbook-boost 0
% abcbook-difficulty 0
% abcbook-tags canberra pickers and fiddlers,old time tunes,steve ryan,© free
% abcbook-tablature 
% abcbook-transpose 
% abcbook-tuning GDAE
% abcbook-lastupdated 1729470409008
% abcbook-src-url https://tunebook.net/scrape/tunes.abc
% abcbook-soundfonts 
% abcbook-repeats 1


